**kern
*I"Violins, Violini I
*I'Vlns.
*clefG2
*k[b-e-a-]
*M2/4
=1
2r
=2
8r
8g'
8g'L
8g'J
=3
2e-
=4
8r
8f'
8f'L
8f'J
=5
[2d
=6
2d]
=7
2r
=8
2r
=9
8r
8ee-'
8ee-'L
8ee-'J
=10
[2cc
=11
4cc]
4r
=12
2r
=13
8r
8ff'
8ff'L
8ff'J
=14
[2dd
=15
8ddL]
8gg'J
8gg'L
8ff'J
=16
!!linebreak:original
2ee-
=17
8dd'L
8gg'J
8gg'L
8ff'J
=18
2ee-
=19
8dd'L
8gg'J
8gg'L
8ff'J
=20
4ee-
4r
=21
4A- 4g-X 4cc
4r
=22
*^
2gg	4G 4d 4bn
.	4r
*v	*v
=23
8r
8a-'
8a-'L
8a-'J
=24
[2f
=25
2f]
=26
8r
8a-'
8a-'L
8a-'J
=27
[2f
=28
2f_
=29
2f]
=30
8e-'L
8a-'J
8a-'L
8a-'J
=31
!!linebreak:original
[2f
=32
2f_
=33
2f]
=34
8e-'L
8g'J
8cc'L
8cc'J
=35
2cc
=36
8bn'L
8b'J
8b'L
8dd'J
=37
2dd
=38
8cc'L
8cc'J
8cc'L
8ee-'J
=39
8ee-L
8dd'J
8dd'L
8ff'J
=40
8ffL
8een'J
8ee'L
8gg'J
=41
8ggL
8ff'J
8ff'L
8aa-'J
=42
8aa-L
8gg'J
8gg'L
8bb-'J
=43
!!linebreak:original
8bb-L
8aa-'J
8aa-'L
8ccc'J
=44
8cccL
8bbn'J
8bb'L
8ddd'J
=45
8ccc'L
8eee-'J
8eee-'L
8eee-'J
=46
8ccc'L
8gg'J
8gg'L
8gg'J
=47
8ee-'L
8cc'J
8g'L
8g'J
=48
8e-'L
8c'J
8c'L
8c'J
=49
8Bn'L
8fff'J
8ddd'L
8ddd'J
=50
8bbn'L
8gg'J
8ff'L
8ff'J
=51
8dd'L
8bn'J
8g'L
8f'J
=52
!!linebreak:original
8d'L
8Bn'J
8c'L
8c'J
=53
8c'L
8eee-'J
8eee-'L
8eee-'J
=54
8ccc'L
8aan'J
8aa'L
8aa'J
=55
8gg'L
8ee-'J
8ee-'L
8ee-'J
=56
8cc'L
8An'J 8an
8A'L 8a
8A'J 8a
=57
4An 4an
4r
=58
2r
=59
4B- 4f 4b-
4r
=60
2r
=61
2r
=62
2r
=63
2r
=64
4b-
4ee-
=65
!!linebreak:original
4dd
4ee-
=66
4ff
4cc
=67
4cc
4b-
=68
2r
=69
2r
=70
2r
=71
2r
=72
4b-
4ee-
=73
4dd
4ee-
=74
4ff
4cc
=75
4cc
4b-
=76
4b-
4cc
=77
4dd-X
4cc
=78
4b-
4cc
=79
4b-
4a-
=80
4dd-X
4ee-
=81
4ff
4ee-
=82
4dd-X
4ee-
=83
!!linebreak:original
4dd-X
4cc
=84
4ee-
4ff
=85
4gg-X
4ff
=86
4ee-
4ff
=87
4gg-X
4ff
=88
4ee-
4ff
=89
4gg-X
4ff
=90
4ee-
4ff
=91
4gg-X
4ff
=92
4ee-
4ff
=93
4gg-X
4ff
=94
4gg-X
4aan
=95
[2b- [2bb-
=96
8b-L] 8bb-]
8ccc'J
8bb-'L
8aa-'J
=97
8aa-L
8gg'J
8ff'L
8ee-'J
=98
!!linebreak:original
8ee-L
8dd'J
8cc'L
8dd'J
=99
8ffL
8ee-'J
8b-'L
8g'J
=100
8ddL
8cc'J
8a-'L
8f'J
=101
8ccL
8b-'J
8g'L
8e-'J
=102
8B-L
8aanJ
8bb-L
8aaJ
=103
8bb-L
8aanJ
8bb-L
8aaJ
=104
8bb-L
8ccc'J
8bb-'L
8aa-'J
=105
8aa-L
8gg'J
8ff'L
8ee-'J
=106
8ee-L
8dd'J
8cc'L
8dd'J
=107
8ffL
8ee-'J
8b-'L
8g'J
=108
!!linebreak:original
8ddL
8cc'J
8a-'L
8f'J
=109
8ccL
8b-'J
8g'L
8e-'J
=110
8B-'L
8b-'J
8bb-'L
8bb-'J
=111
[2ee-
=112
2ee-_
=113
2ee-_
=114
8ee-L]
8ff'J
8ff'L
8ff'J
=115
[2gg
=116
2gg_
=117
2gg_
=118
8ggL]
8b-'J 8bb-
8b-'L 8bb-
8b-'J 8bb-
=119
4b- 4bb-
4r
=120
8r
8b-' 8bb-
8b-'L 8bb-
8b-'J 8bb-
=121
!!linebreak:original
4b- 4bb-
4r
=122
8r
8ff' 8ddd
8ff'L 8ddd
8ff'J 8ddd
=123
4gg 4eee-
4r
=124
2r
=125
2r
=126
2r
=127
8r
8g'
8g'L
8g'J
=128
2e-
=129
8r
8f'
8f'L
8f'J
=130
[2d
=131
2d]
=132
2r
=133
2r
=134
8r
8ee-'
8ee-'L
8ee-'J
=135
[2cc
=136
!!pagebreak:original
4cc]
4r
=137
2r
=138
8r
8ff'
8ff'L
8ff'J
=139
[2dd
=140
8ddL]
8gg'J
8gg'L
8ff'J
=141
2ee-
=142
8dd'L
8gg'J
8gg'L
8ff'J
=143
2ee-
=144
8dd'L
8gg'J
8gg'L
8ff'J
=145
4ee-
4r
=146
4A- 4g-X 4cc
4r
=147
*^
2gg	4G 4d 4bn
.	4r
*v	*v
=148
8r
8a-'
8a-'L
8a-'J
=149
[2f
=150
2f]
=151
!!linebreak:original
8r
8a-'
8a-'L
8a-'J
=152
[2f
=153
2f_
=154
2f]
=155
8e-'L
8a-'J
8a-'L
8a-'J
=156
[2f
=157
2f_
=158
2f]
=159
8e-'L
8g'J
8cc'L
8cc'J
=160
2cc
=161
8bn'L
8b'J
8b'L
8dd'J
=162
2dd
=163
8cc'L
8cc'J
8cc'L
8ee-'J
=164
8ee-L
8dd'J
8dd'L
8ff'J
=165
!!linebreak:original
8ffL
8een'J
8ee'L
8gg'J
=166
8ggL
8ff'J
8ff'L
8aa-'J
=167
8aa-L
8gg'J
8gg'L
8bb-'J
=168
8bb-L
8aa-'J
8aa-'L
8ccc'J
=169
8cccL
8bbn'J
8bb'L
8ddd'J
=170
8ccc'L
8eee-'J
8eee-'L
8eee-'J
=171
8ccc'L
8gg'J
8gg'L
8gg'J
=172
8ee-'L
8cc'J
8g'L
8g'J
=173
8e-'L
8c'J
8c'L
8c'J
=174
!!linebreak:original
8Bn'L
8fff'J
8ddd'L
8ddd'J
=175
8bbn'L
8gg'J
8ff'L
8ff'J
=176
8dd'L
8bn'J
8g'L
8f'J
=177
8d'L
8Bn'J
8c'L
8c'J
=178
8c'L
8eee-'J
8eee-'L
8eee-'J
=179
8ccc'L
8aan'J
8aa'L
8aa'J
=180
8gg'L
8ee-'J
8ee-'L
8ee-'J
=181
8cc'L
8An'J 8an
8A'L 8a
8A'J 8a
=182
4An 4an
4r
=183
2r
=184
!!linebreak:original
4B- 4f 4b-
4r
=185
2r
=186
2r
=187
2r
=188
2r
=189
4b-
4ee-
=190
4dd
4ee-
=191
4ff
4cc
=192
4cc
4b-
=193
2r
=194
2r
=195
2r
=196
2r
=197
4b-
4ee-
=198
4dd
4ee-
=199
4ff
4cc
=200
4cc
4b-
=201
4b-
4cc
=202
!!linebreak:original
4dd-X
4cc
=203
4b-
4cc
=204
4b-
4a-
=205
4dd-X
4ee-
=206
4ff
4ee-
=207
4dd-X
4ee-
=208
4dd-X
4cc
=209
4ee-
4ff
=210
4gg-X
4ff
=211
4ee-
4ff
=212
4gg-X
4ff
=213
4ee-
4ff
=214
4gg-X
4ff
=215
4ee-
4ff
=216
4gg-X
4ff
=217
4ee-
4ff
=218
4gg-X
4ff
=219
!!linebreak:original
4gg-X
4aan
=220
[2b- [2bb-
=221
8b-L] 8bb-]
8ccc'J
8bb-'L
8aa-'J
=222
8aa-L
8gg'J
8ff'L
8ee-'J
=223
8ee-L
8dd'J
8cc'L
8dd'J
=224
8ffL
8ee-'J
8b-'L
8g'J
=225
8ddL
8cc'J
8a-'L
8f'J
=226
8ccL
8b-'J
8g'L
8e-'J
=227
8B-L
8aanJ
8bb-L
8aaJ
=228
8bb-L
8aanJ
8bb-L
8aaJ
=229
!!linebreak:original
8bb-L
8ccc'J
8bb-'L
8aa-'J
=230
8aa-L
8gg'J
8ff'L
8ee-'J
=231
8ee-L
8dd'J
8cc'L
8dd'J
=232
8ffL
8ee-'J
8b-'L
8g'J
=233
8ddL
8cc'J
8a-'L
8f'J
=234
8ccL
8b-'J
8g'L
8e-'J
=235
8B-'L
8b-'J
8bb-'L
8bb-'J
=236
[2ee-
=237
2ee-_
=238
2ee-_
=239
8ee-L]
8ff'J
8ff'L
8ff'J
=240
[2gg
=241
!!linebreak:original
2gg_
=242
2gg_
=243
8ggL]
8b-'J 8bb-
8b-'L 8bb-
8b-'J 8bb-
=244
4b- 4bb-
4r
=245
8r
8b-' 8bb-
8b-'L 8bb-
8b-'J 8bb-
=246
4b- 4bb-
4r
=247
8r
8ff' 8ddd
8ff'L 8ddd
8ff'J 8ddd
=248
4gg 4eee-
4r
=249
2r
=250
2r
=251
2r
=252
8r
8d-X'
8d-'L
8d-'J
=253
[2c
=254
2c]
=255
!!linebreak:original
2r
=256
2r
=257
8r
8aa-'
8aa-'L
8aa-'J
=258
[2ff
=259
4ff]
4r
=260
2r
=261
8r
8bb-'
8bb-'L
8bb-'J
=262
[2gg
=263
8ggL]
8ccc'J
8ccc'L
8bb-'J
=264
2aa-
=265
8gg'L
8ccc'J
8ccc'L
8bb-'J
=266
2aa-
=267
8gg'L
8ccc'J
8ccc'L
8bb-'J
=268
!!pagebreak:original
8aa-'L
8aa-'J
8aa-'L
8gg'J
=269
8ff'L
8ff'J
8ff'L
8ee-'J
=270
8dd'L
8dd'J
8dd'L
8cc'J
=271
4bn
4r
=272
8r
8ee-'
8ee-'L
8ff'J
=273
[2gg
=274
8ggL]
8ee-'J
8ee-'L
8ff'J
=275
[2gg
=276
2gg]
=277
4aan
4bb-
=278
4ccc
4ddd-X
=279
[2dd [2ddd
=280
2dd_ 2ddd_
=281
2dd_ 2ddd_
=282
!!linebreak:original
2dd_ 2ddd_
=283
2dd_ 2ddd_
=284
8ddL] 8ddd]
8gg'J
8gg'L
8aan'J
=285
4bb-
4r
=286
8r
8gg-X'
8aan'L
8bb-'J
=287
4ccc
4r
=288
8r
8gg-X'
8aan'L
8bb-'J
=289
4ccc
4r
=290
8r
8gg'
8bb-'L
8ccc'J
=291
4ddd
4r
=292
8r
8gg'
8bb-'L
8ccc'J
=293
8ddd'L
8bb-'J
8ccc'L
8ddd'J
=294
!!linebreak:original
8ee-'L 8eee-
8ee-'J 8eee-
8ee-'L 8eee-
8ee-'J 8eee-
=295
8ee-'L 8eee-
8ee-'J 8eee-
8ee-'L 8eee-
8ee-'J 8eee-
=296
4ee- 4eee-
4r
=297
8r
8een' 8eeen
8ee'L 8eee
8ee'J 8eee
=298
8een'L 8eeen
8ee'J 8eee
8ee'L 8eee
8ee'J 8eee
=299
8een'L 8eeen
8ee'J 8eee
8ee'L 8eee
8ee'J 8eee
=300
4een 4eeen
4r
=301
8r
8dd' 8ddd
8dd'L 8ddd
8dd'J 8ddd
=302
4dd 4ddd
4r
=303
4r
8ddd-X'L
8ddd-'J
=304
!!linebreak:original
4ddd-X
8dddn'L
8ddd'J
=305
8ddd'L
8ddd'J
8ddd'L
8ddd'J
=306
2gg
=307
2aan
=308
8dd'
[4.dd
=309
2dd_
=310
2dd_
=311
4dd]
8gg-X'L
8gg-'J
=312
4aan
8ddd'L
8ddd'J
=313
8bbn'L
8gg'J
8gg'L
8gg'J
=314
2cc
=315
2dd
=316
8g'
[4.g
=317
2g_
=318
!!linebreak:original
2g_
=319
4g]
8bn'L
8b'J
=320
4dd
8gg'L
8gg'J
=321
4een
4r
=322
2r
=323
2r
=324
2G 2en
=325
2A- 2f
=326
2r
=327
2r
=328
2G 2en
=329
2A- 2f
=330
2r
=331
2r
=332
2g-X
=333
2an
=334
2r
=335
2r
=336
!!linebreak:original
2b-
=337
2r
=338
2bn
=339
2r
=340
2dd-X
=341
2r
=342
2d-X
=343
2r
=344
2d-X
=345
2r
=346
2d-X
=347
2r
=348
2d
=349
2r
=350
2d
=351
2r
=352
2d
=353
2r
=354
8dL
8dd'J
8dd'L
8dd'J
=355
!!linebreak:original
2bn
=356
2cc
=357
[2an
=358
2a]
=359
2r
=360
2d
=361
2r
=362
2d
=363
2r
=364
2d
=365
2r
=366
4d
4r
=367
8r
8aa-'
8aa-'L
8aa-'J
=368
[2ff
=369
8ffL]
8aa-'J
8aa-'L
8aa-'J
=370
[2ff
=371
!!linebreak:original
8ffL]
8aa-'J
8aa-'L
8aa-'J
=372
8ffL
8aa-'J
8aa-'L
8aa-'J
=373
8ffL
8aa-'J
8aa-'L
8aa-'J
=374
8ffL
8gg'J
8gg'L
8gg'J
=375
2gg
=376
8r
8ff'
8ff'L
8ff'J
=377
[2dd
=378
2dd]
=379
2r
=380
8r
8a-'
8a-'L
8a-'J
=381
8gL
8ee-'J
8ee-'L
8ee-'J
=382
4cc
4r
=383
2r
=384
!!linebreak:original
8r
8a-'
8a-'L
8a-'J
=385
8gL
8ff'J
8ff'L
8ff'J
=386
[2dd
=387
8ddL]
8gg'J
8gg'L
8ff'J
=388
2ee-
=389
8ddL
8gg'J
8gg'L
8ff'J
=390
2ee-
=391
8ddL
8gg'J
8gg'L
8ff'J
=392
4ee-
4r
=393
4A- 4g-X 4cc
4r
=394
4G 4d 4bn 4gg
4r
=395
2r
=396
2r
=397
2r
=398
2r
=399
!!linebreak:original
2r
=400
8r
8a-'
8a-'L
8a-'J
=401
[2f
=402
2f_
=403
2f]
=404
8e-L
8a-'J
8a-'L
8a-'J
=405
8fL
8d'J
8d'L
8d'J
=406
8BnL
8A-'J
8A-'L
8A-'J
=407
8GL
8bn'J
8b'L
8b'J
=408
8cc'L
8g'J
8cc'L
8cc'J
=409
2cc
=410
8bn'L
8b'J
8b'L
8dd'J
=411
2dd
=412
!!pagebreak:original
8cc'L
8cc'J
8cc'L
8ee-'J
=413
8ee-L
8dd'J
8dd'L
8ff'J
=414
8ffL
8een'J
8ee'L
8gg'J
=415
8ggL
8ff'J
8ff'L
8aa-'J
=416
8aa-L
8gg'J
8gg'L
8bb-'J
=417
8bb-L
8aa-'J
8aa-'L
8ccc'J
=418
8cccL
8bbn'J
8bb'L
8ddd'J
=419
8ccc'L
8eee-'J
8eee-'L
8eee-'J
=420
8ccc'L
8gg'J
8gg'L
8gg'J
=421
!!linebreak:original
8ee-'L
8cc'J
8g'L
8g'J
=422
8e-'L
8c'J
8c'L
8c'J
=423
8Bn'L
8fff'J
8ddd'L
8ddd'J
=424
8bbn'L
8gg'J
8ff'L
8ff'J
=425
8dd'L
8bn'J
8g'L
8f'J
=426
8d'L
8Bn'J
8c'L
8c'J
=427
8cL
8eee-'J
8eee-'L
8eee-'J
=428
8ccc'L
8aan'J
8aa'L
8aa'J
=429
8gg-X'L
8ee-'J
8ee-'L
8ee-'J
=430
!!linebreak:original
8cc'L
8an'J
8a'L
8a'J
=431
4g-X
4r
=432
2r
=433
4G 4g
4r
=434
2r
=435
2r
=436
2r
=437
2r
=438
4g
4cc
=439
4bn
4cc
=440
4dd
4an
=441
4an
4g
=442
2r
=443
2r
=444
2r
=445
2r
=446
4g
4cc
=447
!!linebreak:original
4bn
4cc
=448
4dd
4an
=449
4an
4g
=450
2r
=451
2r
=452
2r
=453
2r
=454
4b-
4cc
=455
4dd-X
4cc
=456
2r
=457
2r
=458
4cc
4dd
=459
4ee-
4dd
=460
2r
=461
2r
=462
4ff
4gg
=463
4aa-
4gg
=464
4ff
4gg
=465
!!linebreak:original
4aa-
4gg
=466
4ff
4gg
=467
4aa-
4gg
=468
4ff
4gg
=469
4aa-
4gg
=470
4gg-X
4ggn
=471
4aan
4gg
=472
4gg-X
4ggn
=473
4aan
4gg
=474
4gg-X
4ggn
=475
4gg-X
4ggn
=476
4gg-X
4ggn
=477
[2gg
=478
8ggL]
8aan'J
8gg'L
8ff'J
=479
!!linebreak:original
8ffL
8een'J
8dd'L
8cc'J
=480
8ccL
8bn'J
8an'L
8b'J
=481
8ddL
8cc'J
8g'L
8en'J
=482
8bnL
8anJ
8f'L
8d'J
=483
8anL
8g'J
8en'L
8c'J
=484
8G'L
8gg-XJ
8ggnL
8gg-XJ
=485
8ggL
8gg-XJ
8ggnL
8gg-XJ
=486
8gg'L
8aan'J
8gg'L
8ff'J
=487
8ffL
8een'J
8dd'L
8cc'J
=488
!!linebreak:original
8ccL
8bn'J
8an'L
8b'J
=489
8ddL
8cc'J
8g'L
8en'J
=490
8bnL
8an'J
8f'L
8d'J
=491
8anL
8g'J
8en'L
8c'J
=492
8G'L
8g'J
8gg'L
8gg'J
=493
[2cc
=494
2cc_
=495
2cc_
=496
8ccL]
8dd'J
8dd'L
8dd'J
=497
[2een
=498
2ee_
=499
2ee_
=500
!!linebreak:original
8eeL]
8gg'J
8gg'L
8gg'J
=501
4gg
4r
=502
8r
8gg'
8gg'L
8gg'J
=503
4gg
4r
=504
8r
8dd' 8bbn
8dd'L 8bb
8dd'J 8bb
=505
[2ccc
=506
8cccL]
8ccc'J
8ccc'L
8ccc'J
=507
[2ccc
=508
8cccL]
8ccc'J
8ccc'L
8ccc'J
=509
[2ccc
=510
8cccL]
8ccc'J
8ccc'L
8ccc'J
=511
[2ccc
=512
!!linebreak:original
8cccL]
8ccc'J
8ccc'L
8ccc'J
=513
8ddd-X'L
8ddd-'J
8ddd-'L
8ddd-'J
=514
8ddd-X'L
8ddd-'J
8ddd-'L
8ddd-'J
=515
8ddd-X'L
8ddd-'J
8ddd-'L
8ddd-'J
=516
8ddd-X'L
8ddd-'J
8ddd-'L
8ddd-'J
=517
4ddd-X
4r
=518
2r
=519
2r
=520
2r
=521
8r
8ee-' 8eee-
8ee-'L 8eee-
8ee-'J 8eee-
=522
!!linebreak:original
8ee-'L 8eee-
8ee-'J 8eee-
8ee-'L 8eee-
8ee-'J 8eee-
=523
8ee-'L 8eee-
8ee-'J 8eee-
8ee-'L 8eee-
8ee-'J 8eee-
=524
8ee-'L 8eee-
8ee-'J 8eee-
8ee-'L 8eee-
8ee-'J 8eee-
=525
8ee-'L 8eee-
8ee-'J 8eee-
8ee-'L 8eee-
8ee-'J 8eee-
=526
4ee- 4eee-
4r
=527
2r
=528
2r
=529
2r
=530
2r
=531
8bnL
8ccJ
8ddL
8ee-J
=532
8ffL
8ggJ
8aa-L
8ggJ
=533
!!pagebreak:original
8aa-L
8ggJ
8aa-L
8ggJ
=534
2r
=535
8bnL
8ccJ
8ddL
8ee-J
=536
8ffL
8ggJ
8aa-L
8ggJ
=537
8aa-L
8ggJ
8aa-L
8ggJ
=538
8aa-'L
8gg'J
8bb-'L
8aa-'J
=539
8gg'L
8ff'J
8aa-'L
8gg'J
=540
8ff'L
8ee-'J
8gg'L
8ff'J
=541
8ee-'L
8dd'J
8ff'L
8ee-'J
=542
8dd'L
8cc'J
8ee-'L
8dd'J
=543
8cc'L
8b-'J
8dd'L
8cc'J
=544
!!linebreak:original
8b-'L
8a-'J
8cc'L
8b-'J
=545
8a-'L
8g'J
8b-'L
8a-'J
=546
8f'L
8g'J
8e-'L
8g'J
=547
8d'L
8g'J
8e-'L
8g'J
=548
8f'L
8g'J
8e-'L
8g'J
=549
8f'L
8g'J
8g'L
8cc'J
=550
8a-'L
8cc'J
8g'L
8cc'J
=551
8a-'L
8cc'J
8bn'L
8ff'J
=552
8cc'L
8ff'J
8bn'L
8ff'J
=553
8cc'L
8ff'J
8dd'L
8gg'J
=554
4ee-
4cc'
=555
4dd'
4ee-'
=556
!!linebreak:original
4ff
4dd'
=557
4ee-'
4ff'
=558
4gg
4ee-'
=559
4ff'
4gg'
=560
4aa-
4ff'
=561
4gg'
4aan'
=562
4bbn
4gg'
=563
4aan'
4bbn'
=564
4ccc
4gg'
=565
4aa-'
4ee-'
=566
4ff'
4dd'
=567
4ee-'
4ff'
=568
4gg'
4gg-X'
=569
4gg'
4g'
=570
4cc
4r
=571
2r
=572
2r
=573
!!linebreak:original
4e-'
4f'
=574
4g
4e-'
=575
2r
=576
2r
=577
4bn'
4cc'
=578
4dd
4bn'
=579
2r
=580
2r
=581
4bn'
4cc'
=582
4dd
4bn'
=583
2r
=584
2r
=585
2r
=586
2r
=587
4a-
4g'
=588
2r
=589
4aa-
4gg'
=590
4G 4e- 4cc 4gg
4r
=591
!!linebreak:original
4G 4d 4bn 4gg
4r
=592
4ee-
4dd
=593
4cc
4b-
=594
4a-
4g
=595
2r
=596
4a-
4g'
=597
4aa-
4gg'
=598
4G 4e- 4cc 4gg
4r
=599
4G 4d 4bn 4gg
4r
=600
8GL 8e- 8cc
8gg'J
8gg'L
8gg'J
=601
[2gg
=602
2gg_
=603
2gg_
=604
2gg_
=605
8ggL]
8gg'J
8gg'L
8gg'J
=606
8cc'L
8gg'J
8gg'L
8gg'J
=607
!!linebreak:original
8gg'L
8gg'J
8gg'L
8gg'J
=608
8gg'L
8gg'J
8gg'L
8gg'J
=609
8gg'L
8gg'J
8gg'L
8gg'J
=610
2gg
=611
8r
8ff'
8ff'L
8ff'J
=612
[2dd
=613
2dd]
=614
2r
=615
8r
8a-'
8a-'L
8a-'J
=616
8gL
8ee-'J
8ee-'L
8ee-'J
=617
[2cc
=618
4cc]
4r
=619
8r
8a-'
8a-'L
8a-'J
=620
!!linebreak:original
8gL
8ee-'J
8ee-'L
8ee-'J
=621
[2cc
=622
8ccL]
8bn'J 8gg
8b'L 8gg
8b'J 8gg
=623
4cc' 4gg
4r
=624
8r
8bn' 8gg
8b'L 8gg
8b'J 8gg
=625
4cc' 4gg
4r
=626
8r
8bn' 8gg
8b'L 8gg
8b'J 8gg
=627
4cc' 4gg
4d' 4bn 4gg
=628
4e-' 4cc 4gg
4d' 4bn 4gg
=629
4e-' 4cc 4gg
4g' 4dd 4bbn
=630
4g' 4ee- 4ccc
4g' 4dd 4bbn
=631
4g' 4ee- 4ccc
4r
=632
4G' 4d 4bn
4r
=633
4G' 4e- 4cc
4r
==
*-
